Papirus/48x48/apps/preferences-desktop-user-password.svg

<svg xmlns="http://www.w3.org/2000/svg" width="48" height="48" version="1">
 <path style="opacity:0.2" d="M 23,5 C 16.906,5 12,10.406 12,16.5 V 21 c 0,6.094 4.906,11 11,11 h 2 c 6.094,0 11,-4.906 11,-11 V 16.5 C 36,10.406 31.094,5 25,5 Z m 0,4 h 2 c 3.947189,0 7,3.552811 7,7.5 V 21 c 0,3.947189 -3.052811,7 -7,7 h -2 c -3.947189,0 -7,-3.052811 -7,-7 V 16.5 C 16,12.552811 19.052811,9 23,9 Z"/>
 <path style="fill:#d2d2d2" d="M 23,4 C 16.906,4 12,9.406 12,15.5 V 20 c 0,6.094 4.906,11 11,11 h 2 c 6.094,0 11,-4.906 11,-11 V 15.5 C 36,9.406 31.094,4 25,4 Z m 0,4 h 2 c 3.947189,0 7,3.552811 7,7.5 V 20 c 0,3.947189 -3.052811,7 -7,7 h -2 c -3.947189,0 -7,-3.052811 -7,-7 V 15.5 C 16,11.552811 19.052811,8 23,8 Z"/>
 <path opacity=".2" d="m8 42v1c0 1.108 0.892 2 2 2h28c1.108 0 2-0.892 2-2v-1c0 1.108-0.892 2-2 2h-28c-1.108 0-2-0.892-2-2z"/>
 <rect fill="#ffb437" width="24" height="32" x="-44" y="-40" rx="2" ry="2" transform="matrix(0,-1,-1,0,0,0)"/>
 <path fill="#fff" opacity=".2" d="m10 20c-1.108 0-2 0.892-2 2v1c0-1.108 0.892-2 2-2h28c1.108 0 2 0.892 2 2v-1c0-1.108-0.892-2-2-2h-28z"/>
 <rect fill="#fed96a" width="32" height="14" x="8" y="24" rx="0" ry="0"/>
 <path style="opacity:0.2;fill:#ffffff" d="M 23,4 C 16.906,4 12,9.406 12,15.5 v 1 C 12,10.406 16.906,5 23,5 h 2 c 6.094,0 11,5.406 11,11.5 v -1 C 36,9.406 31.094,4 25,4 Z"/>
</svg>

<svg xmlns="http://www.w3.org/2000/svg" width="48" height="48" version="1">
 <path style="opacity:0.2" d="M 23 5 C 16.906 5 12 10.406 12 16.5 L 12 20 L 16 20 L 16 16.5 C 16 12.553 19.053 9 23 9 L 25 9 C 28.947 9 32 12.553 32 16.5 L 32 20 L 36 20 L 36 16.5 C 36 10.406 31.094 5 25 5 L 23 5 z"/>
 <path style="fill:#d2d2d2" d="M 23 4 C 16.906 4 12 9.406 12 15.5 L 12 20 L 16 20 L 16 15.5 C 16 11.553 19.053 8 23 8 L 25 8 C 28.947 8 32 11.553 32 15.5 L 32 20 L 36 20 L 36 15.5 C 36 9.406 31.094 4 25 4 L 23 4 z"/>
 <path style="opacity:0.2" d="M 8,42 V 43 C 8,44.108 8.892,45 10,45 H 38 C 39.108,45 40,44.108 40,43 V 42 C 40,43.108 39.108,44 38,44 H 10 C 8.892,44 8,43.108 8,42 Z"/>
 <rect style="fill:#ffb437" width="32" height="24" x="8" y="20" rx="2" ry="2"/>
 <path style="opacity:0.2;fill:#ffffff" d="M 10,20 C 8.892,20 8,20.892 8,22 V 23 C 8,21.892 8.892,21 10,21 H 38 C 39.108,21 40,21.892 40,23 V 22 C 40,20.892 39.108,20 38,20 Z"/>
 <rect style="fill:#fed96a" width="32" height="14" x="8" y="24" rx="0" ry="0"/>
 <path style="opacity:0.2;fill:#ffffff" d="M 23,4 C 16.906,4 12,9.406 12,15.5 V 16.5 C 12,10.406 16.906,5 23,5 H 25 C 31.094,5 36,10.406 36,16.5 V 15.5 C 36,9.406 31.094,4 25,4 Z"/>
</svg>
